X:1
T:Le vieux vagbond
T:Le vieux vagabond
T:Chèrubini
T:Bèranger
T:Dans ce fossé cessons de vivre, Je finis vieux, infirme et las. Les passants vont dire: il est ivre! Tant mieux: Ils ne me plaindront pas. J'en vois qui détournent la tête; D'autres me jettent quelques sous. Courez vite; allez à la fête, Vieux vagabond, je puis mourir sans vous. Oui, je meurs ici de vieillesse, Parce qu'on ne meurt pas de faim. J'espérais voir de ma détresse L'hôpital adoucir la fin. Mais tout est plein dans chaque hospice, Tant le peuple est infortuné. La rue, hélas! fut ma nourrice: Vieux vagabond, mourons où je suis né. Aux artisans, dans mon jeune âge, J'ai dit: qu'on m'enseigne un métier. Va, nous n'avons pas trop d'ouvrage, Répondaient-ils; va mendier. Riches qui me disiez: Travaille, J'eus bien des os de vos repas; J'ai bien dormi sur votre paille: Vieux vagabond, je ne vous maudis pas.
T:J'aurais pu voler, moi pauvre homme; Mais non: mieux vant tender la main: Au plus, j'ai dérobé la pomme Qui mûrit au bord du chemin. Vingt fois pourtant on me verrouille Dans les cachots, de par le roi. De mon seul bien l'on me dépouille: Vieux vagabond, le soleil est à moi. La pauvre a-t-il une patrie? Que me font vos vins et vos blés, Votre gloire et votre industrie, Et vos orateurs assemblés? Dans vos murs ouverts à ses armes, Lorsque l'étranger s'engraissait, Comme un sot j'ai versé des larmes: Vieux vagabond, sa main me nourrissait. Comme un insecte, fait pour nuire, Hommes, que ne m'écrasiez vous? Ah! plutôt deviez m'instruire A travailler au bien de tous. Mis à l'abri du vent contraire Le ver fût devenu fourmi; Je vous aurais chéris en frère: Vieux vagabond, je meurs votre ennemi. 
T:by IMSLP - Pubblico dominio
T:by IMSLP - Pubblico dominio
T:by IMSLP - Pubblico dominio
C:Chèrubini
Z:Bèranger
Z:by IMSLP - Pubblico dominio
%%score ( 1 2 ) { ( 3 4 ) | ( 5 6 ) }
L:1/8
Q:1/4=100
M:3/4
K:F
V:1 treble nm="Voice"
V:2 treble 
V:3 treble nm="Piano"
V:4 treble 
V:5 bass 
V:6 bass 
V:1
S"^Andantino" z2 | z6 | z6 | z6 | z6 | z6 | z6 |"^CHANT" A2 A2 F2 | c4 c2 | c4 d2 | c4 A2 | %11
w: |||||||Dans ce fos\-|sé ces\-|sons de|vi\- vre;|
 d2 d2 c2 | c4 A2 | c4 G2 | A4 z2 | A2 A2 F2 |!<(! c2 c4 | c4 d2!<)! |!>(! c4 B2!>)! | d2 d2 c2 | %20
w: Je fi\- nis|vieux, in\-|firme et|las.|Les pas\- sants|vont dire:|il est|i\- vre,|Tant mieux! ils|
 c4 A2 | c4 G2 | A4 z2 |!f!"^più" =B2 B2 d2 | c2 c4 |"^cresc." ^c4 e2 | e4 d2 |!f! d2 d2 f2 | %28
w: ne me|plain\- dront|pas.|J'en vois qui|dé\- tour\-|nent la|tê\- te;|D'au\- tres me|
 =B4 B2 |!>(!{/=B} d4 c2!>)! | c2 z2 z2 | A4 A2 | A4 B2 | c2 B2 G2 |!<(! A4 c2!<)! | f2 f2 c2 | %36
w: jet\- tent|quel\- ques|sous.|Cou\- rez|vite; al\-|lez à la|fê\- te.|Vieux va\- ga\-|
 c2 A2 A2 | F2 G2 G2 | A4 z2 |!f![Q:1/4=90]"^Rall." d2 f2 c2 |[Q:1/4=100] c2 A2 d2 | %41
w: bond, je puis|mou\- rir sans|vous,|Vieux va\- ga\-|bond, je puis|
[Q:1/4=80]!>(! B2 G2 c2!>)! | F4!D.S.! ||[Q:1/4=90] z2 | z6 | z6 | z6 | z6 | z6 | z6!fine! |] %50
w: mou\- rir sans|vous.||||||||
V:2
 x2 | x6 | x6 | x6 | x6 | x6 | x6 | x6 | x6 | x6 | x6 | x6 | x6 | x6 | x6 | x6 | c4 c2 | x6 | x6 | %19
 x6 | x6 | x6 | x6 | x6 | c4 c2 | x6 | x6 | x6 | x6 | x6 | x6 | x6 | x6 | x6 | x6 | x6 | x6 | x6 | %38
 x6 | x6 | x6 | x6 | x4 || x2 | x6 | x6 | x6 | x6 | x6 | x6 |] %50
V:3
!f! (f>d |!>(! c2) c2 c2!>)! | A4!p! (d>B | A2) A2 A2 | F2 z [Ff] z [Dd] | z [B,B] z [G,G] z [Cc] | %6
 F4 z2 |!p! z (A,CFAF) | z (A,CFAF) | z (A,CFAF) | z (F,FDFB) | z (EGFDC) | (^GCACFC) | (FDEFDC) | %14
 (AGFEDC) | z (A,CFAF) |!<(! z (G,C_EGC) | z (^F,A,D^FD)!<)! | z!>(! (DGABG)!>)! | (GEGdcE) | %20
 (FCGCAC) | (DAGFEC-) | (CDEFGA) |!f! ([D=B]=B,[DA]B,[DG]B,) | ([E=B]C[EA]C[EG]C) | %25
"_cresc." ([E^c]C[E_B]C[EA]C) | ([A^c]E[Ae]^C[Ad]D) |!f! z (FAdfA) | (ADGDFD) | %29
!>(! (G=B,FB,EC)!>)! | E2 z2 z2 |!p! ([FA]C[FA]C[FA]C) | ([FA]D[FA]D[FA]D) | ([Ec]G[EG]C[EG]C) | %34
!<(! ([FA]C[FA]C[Ac]F)!<)! | ([cf]F[cf]F[Bc]E) | ([Ac]F[FA]C[FA]C) | (ED[FG]D[EG]C) | %38
 ([FA]C[FA]C[FA]C) | (c2 f2 c2) | ([Fc]2 [GA]2 [^Fd]2) |!>(! (B2 G2 c2!>)! | [A,CF]4) ||!f! (f>d | %44
!>(! c2) c2 c2!>)! | A4!p! (d>B | A2) A2 A2 | F2 z [Ff] z [Dd] | z [B,B] z [G,G] z [Cc] | F4 z2 |] %50
V:4
 F2 | E2 F2 G2 | F4 D2 | ^C2 D2 E2 | F2 x4 | x6 | x6 | x6 | x6 | x6 | x6 | x6 | x6 | x6 | x6 | x6 | %16
 x6 | x6 | x6 | x6 | x6 | x6 | x6 | x6 | x6 | x6 | x6 | x6 | x6 | x6 | x6 | x6 | x6 | x6 | x6 | %35
 x6 | x6 | x6 | x6 | F4 E2 | x6 | D4 E2 | x4 || F2 | E2 F2 G2 | F4 D2 | ^C2 D2 E2 | F2 x4 | x6 | %49
 x6 |] %50
V:5
 A,>B, | C2 D2 E2 | D4 F,>G, | A,2 =B,2 ^C2 | D2 F, z D, z | B,, z G,, z [C,,C,] z | [F,,F,]4 z2 | %7
 [F,,F,]6 | [E,,E,]6 | [_E,,_E,]6 | [D,,D,]6 | [C,,C,]2 [D,,D,]2 [E,,E,]2 | [F,,F,]4 A,2 | %13
 [C,B,]6 | [F,A,]4 z2 | [F,,F,]6 | [_E,,_E,]6 | [D,,D,]6 | [G,,G,]6 | [B,,B,]6 | %20
 [A,,A,]2 [G,,G,]2 [F,,F,]2 | B,6 | [F,A,]6 |"^più" [F,,F,]6 | [E,,E,]6 | [G,,G,]6 | [F,,F,]6 | %27
 [D,A,]6 | [G,=B,]6 | G,,4 C,2 | (C,G,C_B,A,G,) | F,6 | D,6 | C,6 | [F,,F,]6 | [A,,A,]4 [G,,G,]2 | %36
 [F,,F,]4 [E,,E,]2 | D,2 B,,2 C,2 | F,4 z2 | [A,C]2!f! [^G,=B,]2 [=G,_B,]2 | %40
 [F,A,]2 [_E,C]2 [D,A,]2 | G,4 B,2 | [F,,F,]4 || A,>B, | C2 D2 E2 | D4 F,>G, | A,2 =B,2 ^C2 | %47
 D2 F, z D, z | B,, z G,, z [C,,C,] z | [F,,F,]4 z2 |] %50
V:6
 x2 | x6 | x6 | x6 | x6 | x6 | x6 | x6 | x6 | x6 | x6 | x6 | x4 F,2 | x6 | x6 | x6 | x6 | x6 | x6 | %19
 x6 | x6 | G,4 C,2 | x6 | x6 | x6 | x6 | x6 | x6 | x6 | x6 | x6 | x6 | x6 | x6 | x6 | x6 | x6 | %37
 A,2 x4 | x6 | x6 | x6 | G,,2 B,,2 C,2 | x4 || x2 | x6 | x6 | x6 | x6 | x6 | x6 |] %50

